assets/icons/appwrite.svg

<svg xmlns="http://www.w3.org/2000/svg" viewBox="0 0 16 16"><path fill="#ff4081" d="M7 2a6 6 0 0 0-6 6 6 6 0 0 0 6 6h8v-3H7a3 3 0 0 1-3-3 3 3 0 0 1 3-3 3 3 0 0 1 2.236 1h3.42A6 6 0 0 0 7 2m2.828 5A3 3 0 0 1 10 8a3 3 0 0 1-.764 2H15V7z"/></svg>

<svg xmlns="http://www.w3.org/2000/svg" viewBox="0 0 16 16" >
	<path
		id="motive"
		fill="#FF4081" stroke="none"
		d="M 7 2 A 6 6 0 0 0 1 8 A 6 6 0 0 0 7 14 L 15 14 L 15 11 L 12.195312 11 L 7 11 A 3 3 0 0 1 4 8 A 3 3 0 0 1 7 5 A 3 3 0 0 1 9.2363281 6 L 12.65625 6 A 6 6 0 0 0 7 2 z M 9.828125 7 A 3 3 0 0 1 10 8 A 3 3 0 0 1 9.2363281 10 L 15 10 L 15 7 L 9.828125 7 z"
	/>
</svg>
